X:153
T:Miller's Wedding - Free
%%VWML:SBG-1-2-742-0
F:http://www.vwml.org/record/SBG/1/2/742
Z:Original Sibelius transcriptions by M. & S. Graebe
M:6/8
I:linebreak $
K:G
V:1 treble nm="P1"
V:1
 G | G B d c B A | G B d2 c B/ d/ | e c e d B d | c A c2 B c/ B/ | A d f B ^c d | A F D D2 A |$ %7
w: |||||||
w: |||||||
w: |||||||
w: |||||||
w: |||||||
w: |||||* * * b c *||
 A B c B c d | E F G F2 G | A F G c B A | G B d c2 (B/d/) | e f g A B c | B G G G3 |$ %13
w: ||||||
w: ||||||
w: ||||||
w: ||||||
w: ||||||
w: ||||||
"^chorus" d2 d d2 c/B/ | e2 e e2 g | d3/2 e/ d B2 A | G3/2 A/ B D3 | E G A B g e | d B A G2 z | %19
w: ||||||
w: ||||||
w: ||||||
w: ||||||
w: ||||||
w: ||||||

